!!!COM: Ludwig van Beethoven
!!!CNT: Deutsch
!!!TXO: Deutsch
!!!OTL: "Busslied"
!!!LYR: Gellert, Christian Fu2rchtegott
!!!OPS: Op. 48
!!!ONM: No. 6
!!!ENC: Amanda Harris
!!!YOR: Sa2mtliche Lieder, Band 1
!!!YOR: G. Henle Verlag
!!!ODT: 1801/
!!NB: Vocal melody and text encoded.
**kern	**silbe
*clefG2	*
*k[]	*
*M3/4	*
*MM[poco adagio]	*
=	=
2r	.
{4e	{An
=1	=1
4.a	dir
8b	al-
8cc	-lein,
8cc#	an
=2	=2
4.dd	dir
8ee	hab'
16gg	ich
16ff	|
16ee	ge-
16dd	|
=3	=3
4ccn	-su2n-
4b	-digt
8r	.
8b	und
=4	=4
8.b	u2-
16b	-bel
8b	oft
8b	vor
8b	dir
8cc	ge-
=5	=5
4cc	-tan.
4b}	|}
8r	.
{8b	{Du
=6	=6
4.ee	siehst
8dd	die
8cc	Schuld,
8b	die
=7	=7
8.a#	mir
16a#	den
4.gg	Fluch
8a#	ver-
=8	=8
4a#	-ku2n-
4b	-digt;
8r	.
8b	sieh,
=9	=9
4.ccn	Gott,
8b	auch
8dd#	mei-
8ee	-nen
=10	=10
4ee	Jam-
4f#	-mer,
12f#	mei-
12a	|
12cc	-nen
=11	=11
4cc	Jam-
4.b	|
8d#	-mer
=12	=12
4e}	an.}
4r	.
4r	.
=15	=15
4r	.
4r	.
{4b	{Dir
=16	=16
2b	ist
4b	mein
=17	=17
4cc	Flehn,
8b	|
8r	.
8r	.
8b	mein
=18	=18
4.b	Seuf-
8cc	-zen
8f#	nicht
8b	ver-
=19	=19
4a	-bor-
4g	-gen,
8r	.
8g	und
=20	=20
2g#	mei-
4g#	-ne
=21	=21
2a	Tra2-
8b	-nen
8cc	|
=22	=22
2dd	sind
16dd	vor
16cc	|
16b	|
16cc	|
=23	=23
4cc	dir.
8b}	|}
8r	.
8r	.
{8e	{Ach
=24	=24
4.a	Gott,
8b	mein
8cc	Gott,
8cc#	wie
=25	=25
4.dd	lan-
8ee	-ge
16gg	soll
16ff	|
16ee	ich
16dd	|
=26	=26
4ccn	sor-
4b	-gen?
8r	.
8b	Wie
=27	=27
8.b	lang
16b	ent-
8b	-fernst
8b	du
8b	dich
8cc	von
=28	=28
4cc	mir?
4b	|
8r	.
8b	Herr,
=29	=29
4.dd	hand-
8cc	-le
8b	nicht
8a	mit
=30	=30
8g#	mir
8g#	nach
4.ff	mei-
8g#	nen
=31	=31
4b	Su2n-
4a}	-den,}
8r	.
{8a	{ver-
=32	=32
2b	-gilt
4b	mir
=33	=33
4cc#	nicht,
4r	.
8r	.
8cc#	ver-
=34	=34
4.dd	-gilt
8dd	mir
8ee	nicht
8ee	nach
=35	=35
4.ff	mei-
16gg	|
16ff	|
16ee	-ner,
16dd	|
16ccn	nach
16b	|
=36	=36
2a	mei-
8.cc	-ner
16b	|
=37	=37
4a}	Schuld.}
4r	.
4r	.
=38	=38
8r	.
{8b	{Ich
4b	su-
8dd	-che
8cc	|
=39	=39
4b	dich;
4r	.
4r	.
=40	=40
8r	.
8b	lass
8b	mich
8b	dein
8dd	Ant-
8cc	-litz
=41	=41
8cc	fin-
8b}	-den,}
4r	.
8r	.
{8cc	{du
=42	=42
2b	Gott
4b	der
=43	=43
4.cc	Lang-
8cc	-mut
8b	und
8a	Ge-
=44	=44
4g#	-duld,
4r	.
4ee	der
=45	=45
*MM[adagio]	*
4.dd#	Lang-
8cc	-mut
8b	und
8a	Ge-
=46	=46
*MM[tempo I]	*
4e}	-duld.}
4r	.
4r	.
=55	=55
*k[f#c#g#]	*
4r	.
4r	.
{4e	{Fru2h
=56	=56
2a	woll'st
4a	du
=57	=57
2b	mich
4b	mit
=58	=58
4.cc#	dei-
8b	-ner
8cc#	Gna-
8dd	-de
=59	=59
4cc#	fu2l-
4b	-len,
4b	Gott,
=60	=60
2b	Va-
8cc#	-ter
8dd#	|
=61	=61
2ee	der
8cc#	Barm-
8ff#	|
=62	=62
2ee	-her-
4dd#	-zig-
=63	=63
4ee}	-keit.}
4r	.
8r	.
{8ee	{Er-
=64	=64
2ee	freu-
8cc#	-e
8a	|
=65	=65
4ee	mich
4dd	|
4cc#	um
=66	=66
8b	dei-
8ff#	-nes
8ee	Na-
8dd	|
8cc#	-mens
8b	|
=67	=67
4a	wil-
4g#	-len
8r	.
8e	du
=68	=68
2a	bist
8b	ein
8cc#	|
=69	=69
2dd	Gott,
8ee	der
8ff#	|
=70	=70
4.ee	gern
8cc#	|
8dd	er-
8b	|
=71	=71
4a}	-freut.}
4r	.
4r	.
=72	=72
4r	.
4r	.
{4e	{Lass
=73	=73
2a	dei-
4a	-nen
=74	=74
2b	Weg
4b	mich
=75	=75
4.cc#	wie-
8b	-der
8cc#	freu-
8dd	-dig
=76	=76
4cc#	wal-
4b	-len
8r	.
8b	und
=77	=77
2b	leh-
8cc#	-re
8dd#	|
=78	=78
2ee	mich
8cc#	dein
8ff#	|
=79	=79
2ee	hei-
4dd#	-lig
=80	=80
4ee}	Recht,}
8r	.
{8ee	{dein
8ee	hei-
8ee	-lig
=81	=81
4.ee	Recht,
8ee	mich
8cc#	ta2g-
8a	-lich
=82	=82
4ee	tun
4dd	|
4cc#	nach
=83	=83
8b	dei-
8ff#	-nem
8ee	Wohl-
8dd	|
8cc#	-ge-
8b	|
=84	=84
4a	-fal-
4g#	-len;
8r	.
8e	du
=85	=85
2a	bist
8b	mein
8cc#	|
=86	=86
2dd	Gott,
8ee	ich
8ff#	|
=87	=87
4.ee	bin
8cc#	|
8dd	dein
8b	|
=88	=88
4a}	Knecht.}
4r	.
4r	.
=89	=89
4r	.
4r	.
{4e	{Herr,
=90	=90
2a	ei-
4a	-le
=91	=91
2b	du,
4b	mein
=92	=92
4.cc#	Schutz,
8b	mir
8cc#	bei-
16ee	-zu-
16dd	|
=93	=93
4cc#	-ste-
4b	-hen
8r	.
8b	und
=94	=94
2b	lei-
8cc#	-te
8dd#	|
=95	=95
2ee	mich
8cc#	auf
8ff#	|
=96	=96
2ee	eb-
4dd#	-ner
=97	=97
4ee}	Bahn.}
4r	.
8r	.
{8ee	{Er
=98	=98
2ee	ho2rt
8cc#	mein
8a	|
=99	=99
4ee	Schrein,
8dd	|
8r	.
4cc#	der
=100	=100
8b	Herr
8ff#	er-
8ee	-ho2rt
8dd	|
8cc#	mein
8b	|
=101	=101
4a	Fle-
4g#	-hen
8r	.
8e	und
=102	=102
2a	nimmt
8b	sich
8cc#	|
=103	=103
2dd	mei-
8ee	-ner
8ff#	|
=104	=104
4.ee	See-
8cc#	|
8dd	-len
8b	|
=105	=105
4a}	an.}
4r	.
{4a	{Der
=106	=106
4.b	Herr
8b	er-
8b	-ho2rt
8b	mein
=107	=107
4cc#	Schrein,
4r	.
4cc#	der
=108	=108
4.dd	Herr
8dd	er-
8dd	ho2rt
8dd	mein
=109	=109
4ee	Flehn
4r	.
4ee	und
=110	=110
2ff#	nimmt
4dd	sich
=111	=111
2a	mei-
4a	-ner
=112	=112
2a	See-
4a	-len
=113	=113
2.a}	an.}
*-	*-
